src/Widgets/DownloadCardWidget/thumbnail.svg

<svg viewBox="0 0 150 100" fill="none" xmlns="http://www.w3.org/2000/svg">
<g id="card-download">
<g id="Ebene_1" clip-path="url(#clip0_6_577)">
<g id="Group" opacity="0.55">
<path id="Vector" d="M110.27 33H39.55C38.1417 33 37 34.1417 37 35.55V64.63C37 66.0383 38.1417 67.18 39.55 67.18H110.27C111.678 67.18 112.82 66.0383 112.82 64.63V35.55C112.82 34.1417 111.678 33 110.27 33Z" fill="#AAAAAA"/>
</g>
<path id="Vector_2" d="M66.11 43.73H100.91" stroke="#AAAAAA" stroke-width="5.63" stroke-linecap="round" stroke-linejoin="bevel"/>
<path id="Vector_3" d="M65.11 52.25H91.25" stroke="#AAAAAA" stroke-width="3.75" stroke-linecap="round" stroke-linejoin="bevel"/>
<path id="Vector_4" d="M65.11 59.07H85.84" stroke="#AAAAAA" stroke-width="3.75" stroke-linecap="round" stroke-linejoin="bevel"/>
<path id="Vector_5" d="M51 42L51 52" stroke="#AAAAAA" stroke-width="3.49" stroke-linecap="round" stroke-linejoin="round"/>
<path id="Vector_6" d="M55 50L51 54L47 50" stroke="#AAAAAA" stroke-width="3.49" stroke-linecap="round" stroke-linejoin="round"/>
</g>
</g>
<defs>
<clipPath id="clip0_6_577">
<rect width="75.82" height="34.18" fill="white" transform="translate(37 33)"/>
</clipPath>
</defs>
</svg>

<svg xmlns="http://www.w3.org/2000/svg" fill="none" viewBox="0 0 150 100"><g clip-path="url(#a)"><path fill="#AAA" d="M110.27 33H39.55A2.55 2.55 0 0 0 37 35.55v29.08a2.55 2.55 0 0 0 2.55 2.55h70.72a2.55 2.55 0 0 0 2.55-2.55V35.55a2.55 2.55 0 0 0-2.55-2.55" opacity=".55"/><path stroke="#AAA" stroke-linecap="round" stroke-linejoin="bevel" stroke-width="5.63" d="M66.11 43.73h34.8"/><path stroke="#AAA" stroke-linecap="round" stroke-linejoin="bevel" stroke-width="3.75" d="M65.11 52.25h26.14m-26.14 6.82h20.73"/><path stroke="#AAA" stroke-linecap="round" stroke-linejoin="round" stroke-width="3.49" d="M51 42v10m4-2-4 4-4-4"/></g><defs><clipPath id="a"><path fill="#fff" d="M37 33h75.82v34.18H37z"/></clipPath></defs></svg>
